X: 14435
T: Galway, The
R: reel
M: 4/4
K: Gmajor
B|:AGEG DG,B,D|BAGA BedB|AGED B,DA,D|
B,~A,3 B,EED|E2 DE GEDB,|D2 CE DG,B,D|
~E3G DEGA|1 BdAB G3 B:|2 BdAB G2 Bc||
|:d~G3 EGDC|B,G,B,D GBdf|e~c3 AcGE|
DFAd fedc|BG(3GGG EGDC|B,G,B,D GBdf|
e~c3 efge|1 dBAB G2 Bc:|2 dBAB G3 B||

